X: 32494
T: Plane Tree, The
R: jig
M: 6/8
K: Eminor
|:EGB EGB|cBA B3|cde dcB|AGA B3|
EGB EGB|cBA B3|cde dcB|AGF E3:|
|:efg f2 e|ded BAB|cde dcB AGA|B3|
efg f2 e|ded BAB|cde dcB|AGF E3:|

